!!!OTL: DIE TREUE DIE UNS BRUEDER BAND
!!!ARE: Europa, Mitteleuropa, Deutschland
!!!SCT: F0482
!!!YEM: Copyright 1995, estate of Helmut Schaffrath.
**kern
*ICvox
*Ivox
*M4/4
*k[b-]
*F:
{4c
=1
4.f
8g
4a
4b-
=2
4.cc
8a
4f}
{4cc
=3
4dd
4cc
4b-
4a
=4
2.cc}
{4c
=5
4.f
8g
4a
4b-
=6
4.cc
8a
4f}
{4cc
=7
4dd
4cc
4b-
4a
=8
2.cc}
{4cc
=9
4.g
8a
8cc
8b-
8a
8g
=10
4a
4cc
4ff}
{4cc
=11
4dd
4cc
4b-
4a
=12
2cc
4r}
{4c
=13
4.f
8g
4a
4b-
=14
4.cc
8a
4f}
{4dd
=15
4.cc
8a
8cc
8b-
8a
8g
=16
4a
8b-
8dd
4cc}
{8ff
8dd
=17
4.cc
8a
8cc
8b-
8a
8g
=18
2f
4r}
==
!!!AGN: Studenten - Lied, national
!!!ONB: ESAC (Essen Associative Code) Database: FINK
!!!AMT: simple quadruple
!!!AIN: vox
!!!EED: Helmut Schaffrath
!!!EEV: 1.0
*-
